X:1
T:Title
%%score { 1 | 2 }
L:1/8
Q:1/4=100
M:6/8
K:Ab
V:1 treble nm="Grand Piano"
V:2 bass 
V:1
 [CE]2 [Ec] [CA]2 E | F2 A E3 | E2 B E2 B | [DB]2 [CA] [Ec]3 | [CE]2 [Ec] [CA]2 E | F2 A E3 | %6
w: B.~A.~Robinson * * *||||||
 E2 B E2 B | [CA]6 | [Ec]2 [CE] [DF]2 [EG] | [DF]2 [CE] [Ec]3 | [=Dc]2 [DB] e3 | [Cc]2 [CA] [CE]3 | %12
w: ||||||
 [Ec]2 [CE] [DF]2 [EG] | [DF]2 [CE] [Ec]3 | [=Dc]2 [DB] c2 B | [CA]6 |] %16
w: ||||
V:2
 [A,,A,]2 [A,,A,] [A,,E,]2 [C,A,] | [D,A,D]2 [F,A,D] [A,C]3 | [G,B,D]2 [E,G,D] [G,B,D]2 [E,G,D] | %3
 [A,,E,]2 [A,,E,] [A,,A,]3 | [A,,A,]2 [A,,A,] [A,,E,]2 [C,A,] | [D,A,D]2 [F,A,D] [A,C]3 | %6
 [G,B,D]2 [E,G,D] [G,B,D]2 [E,D] | [A,,E,]6 | [A,,A,]2 [A,,A,] [A,,A,]2 [A,,A,] | %9
 [A,,A,]2 [A,,A,] [A,,A,]3 | [B,,A,]2 [B,,A,] [E,G,D]3 | [A,,E,]2 [A,,E,] [A,,A,]3 | %12
 [A,,A,]2 [A,,A,] [A,,A,]2 [A,,A,] | [A,,A,]2 [A,,A,] [A,,A,]3 | [B,,A,]2 [B,,A,] [E,G,D]2 [E,D] | %15
 [A,,E,]6 |] %16

